X: 41928
T: Wake Up To Cape Breton
R: reel
M: 4/4
K: Emixolydian
|:c|BEEF DEFD|E2GB eBcA|BEEF DEFA|(3BcB AF DEFA|
BEEF DEFD|E2GB eBcA|1 BEEF DEFD|B,A,B,D E2E:|
2 BEEF DEFA|(3Bcd AF E2E||
K:Edor
|:d|eBB=g efge|fd~d2 ABdf|eBBg efge|dBAF E2Ed|
eBBg efge|fd~d2 ABdf|gefd edBA|(3Bcd AF E2E:|

